Papirus/22x22/apps/tokodon.svg

<svg width="22" height="22" version="1.1" xmlns="http://www.w3.org/2000/svg">
 <circle transform="rotate(90,0,-1)" cx="12.5" cy="-12" r="10" style="opacity:.2"/>
 <circle transform="rotate(90,0,-1)" cx="12" cy="-12" r="10" style="fill:#50beee;opacity:.98"/>
 <path transform="translate(-1,-1)" d="m9.5 11c-0.639224 2.738174-1.3638855 3.71733-2 4-0.214132 0.09515-0.5 0.173627-0.5 0.25 0 0.123969 0.2613175 0.243785 0.5 0.25 0.5829135 0.01518 2.2219407-1.383686 3.5-3 0.669373-0.846531 0-1.5 0-1.5z" style="opacity:.2"/>
 <path transform="translate(-1,-1)" d="m9.5 10.5c-0.639224 2.738174-1.3638855 3.71733-2 4-0.214132 0.09515-0.5 0.173627-0.5 0.25 0 0.123969 0.2613175 0.243785 0.5 0.25 0.5829135 0.01518 2.2219407-1.383686 3.5-3 0.669373-0.846531 0-1.5 0-1.5z" style="fill:#e4e4e4"/>
 <path transform="translate(-1,-1)" d="m14.5 11c0.622445 2.666285 1.429317 3.698394 2 4 0.212672 0.112397 0.5 0.170598 0.5 0.25 0 0.116901-0.264179 0.244854-0.5 0.25-0.567344 0.01238-2.227532-1.390757-3.5-3-0.51809-0.65521 0-1.5 0-1.5z" style="opacity:.2"/>
 <path transform="translate(-1,-1)" d="m14.5 10.499919c0.622445 2.666285 1.429317 3.698394 2 4 0.212672 0.112397 0.5 0.170598 0.5 0.25 0 0.116901-0.264179 0.244854-0.5 0.25-0.567344 0.01238-2.227532-1.390757-3.5-3-0.51809-0.65521 0-1.5 0-1.5z" style="fill:#e4e4e4"/>
 <path transform="translate(-1,-1)" d="m15.5 6.5c1.5 0 2.5 1 2.5 2.5v2.5c0 0.53145-0.43678 1-1 1h-3v2.5c0 0.448671 0.199676 1 0.199676 1 0.233272 0.518337 0.682368 1.353118 1.385614 1.429679 0.353621 0.0385 0.66636-0.04267 0.764425-0.14861 0.056031-0.060528 0.150285-0.181898 0.150285-0.281069 0-0.178437 0.142857-0.5 0.5-0.5 0.317534-4e-3 0.5 0.130018 0.5 0.329647 0 0.290505-0.425785 0.561518-0.5 0.670353 0 0 0.394759 0.139762 0.5 0.180538 0.13146 0.05093 0.25 0.212321 0.25 0.319462 0 0.201831-0.25 0.5-0.5 0.5-0.306378 0-0.483669-0.334987-0.75-0.25-0.702638 0.224211-1.5 0.25-3 0.25-1.767445 0-2.964883-1.359419-3.285714-2.428572-0.214286-0.714096-0.214286-1.508393-0.214286-2.571428v-1h-1.5c-1.5 0-2.5-1.5-2.5-3v-2c0-0.5 0.5-1 1-1z" style="fill:#010101;opacity:.2"/>
 <path transform="translate(-1,-1)" d="m15.5 6c1.5 0 2.5 1 2.5 2.5v2.5c0 0.53145-0.43678 1-1 1h-3v2.5c0 0.448671 0.199676 1 0.199676 1 0.233272 0.518337 0.682368 1.353118 1.385614 1.429679 0.353621 0.0385 0.66636-0.04267 0.764425-0.14861 0.056031-0.060528 0.150285-0.181898 0.150285-0.281069 0-0.178437 0.142857-0.5 0.5-0.5 0.317534-4e-3 0.5 0.130018 0.5 0.329647 0 0.290505-0.425785 0.561518-0.5 0.670353 0 0 0.394759 0.139762 0.5 0.180538 0.13146 0.05093 0.25 0.212321 0.25 0.319462 0 0.201831-0.25 0.5-0.5 0.5-0.306378 0-0.483669-0.334987-0.75-0.25-0.702638 0.224211-1.5 0.25-3 0.25-1.767445 0-2.964883-1.359419-3.285714-2.428572-0.214286-0.714096-0.214286-1.508393-0.214286-2.571428v-1h-1.5c-1.5 0-2.5-1.5-2.5-3v-2c0-0.5 0.5-1 1-1z" style="fill:#4f4f4d"/>
 <ellipse transform="matrix(.5593716 -.82891701 .89658382 .44287408 -1 -1)" cx="-1.8861344" cy="16.791569" rx="1.1125714" ry=".87303203" style="fill:#e4e4e4;opacity:.98"/>
 <ellipse transform="matrix(-.55937162 -.828917 -.89658383 .44287407 -1 -1)" cx="-12.612456" cy="-3.2846344" rx="1.1125715" ry=".87303191" style="fill:#e4e4e4;opacity:.98"/>
 <path transform="translate(-1,-1)" d="M 12,2 C 6.46,2 2,6.46 2,12 2,12.04052 2.00403,12.08004 2.00628,12.119978 2.131829,6.690779 6.5395455,2.5 12,2.5 c 5.460454,0 9.868171,4.190779 9.993722,9.619978 C 21.995972,12.08004 22,12.040518 22,12 22,6.46 17.54,2 12,2 Z" style="fill:#ffffff;opacity:.2"/>
</svg>

<svg xmlns="http://www.w3.org/2000/svg" width="22" height="22" version="1.1">
 <g transform="translate(-1,-1)">
  <circle style="opacity:0.2" cx="12" cy="12.5" r="10"/>
  <circle style="fill:#50beee" cx="12" cy="12" r="10"/>
  <path style="opacity:0.2" d="M 14.5,11 C 15.122,13.666 15.929,14.698 16.5,15 16.713,15.112 17,15.171 17,15.25 17,15.367 16.736,15.495 16.5,15.5 15.933,15.512 14.272,14.109 13,12.5 12.482,11.845 13,11 13,11 Z M 9.5,11 C 8.8608,13.738 8.1361,14.717 7.5,15 7.2859,15.095 7,15.174 7,15.25 7,15.374 7.2613,15.494 7.5,15.5 8.0829,15.515 9.7219,14.116 11,12.5 11.669,11.653 11,11 11,11 Z"/>
  <path style="fill:#e4e4e4" d="M 14.5,10.5 C 15.122,13.166 15.929,14.198 16.5,14.5 16.713,14.612 17,14.671 17,14.75 17,14.867 16.736,14.995 16.5,15 15.933,15.012 14.272,13.609 13,12 12.482,11.345 13,10.5 13,10.5 Z M 9.5,10.5 C 8.8608,13.238 8.1361,14.217 7.5,14.5 7.2859,14.595 7,14.674 7,14.75 7,14.874 7.2613,14.994 7.5,15 8.0829,15.015 9.7219,13.616 11,12 11.669,11.153 11,10.5 11,10.5 Z"/>
  <path style="opacity:0.2" d="M 15.5,6.5 C 17,6.5 18,7.5 18,9 V 11.5 C 18,12.031 17.563,12.5 17,12.5 H 14 V 15 C 14,15.449 14.2,16 14.2,16 14.433,16.518 14.882,17.353 15.585,17.43 15.939,17.468 16.252,17.387 16.35,17.281 16.406,17.221 16.5,17.099 16.5,17 16.5,16.822 16.643,16.5 17,16.5 17.318,16.496 17.5,16.63 17.5,16.83 17.5,17.12 17.074,17.391 17,17.5 17,17.5 17.395,17.64 17.5,17.681 17.631,17.731 17.75,17.893 17.75,18 17.75,18.202 17.5,18.5 17.25,18.5 16.944,18.5 16.766,18.165 16.5,18.25 15.797,18.474 15,18.5 13.5,18.5 11.733,18.5 10.535,17.141 10.214,16.071 10,15.357 10,14.563 10,13.5 V 12.5 H 8.5 C 7,12.5 6,11 6,9.5 V 7.5 C 6,7 6.5,6.5 7,6.5 Z"/>
  <path style="fill:#4f4f4d" d="M 15.5,6 C 17,6 18,7 18,8.5 V 11 C 18,11.531 17.563,12 17,12 H 14 V 14.5 C 14,14.949 14.2,15.5 14.2,15.5 14.433,16.018 14.882,16.853 15.585,16.93 15.939,16.968 16.252,16.887 16.35,16.781 16.406,16.721 16.5,16.599 16.5,16.5 16.5,16.322 16.643,16 17,16 17.318,15.996 17.5,16.13 17.5,16.33 17.5,16.62 17.074,16.891 17,17 17,17 17.395,17.14 17.5,17.181 17.631,17.231 17.75,17.393 17.75,17.5 17.75,17.702 17.5,18 17.25,18 16.944,18 16.766,17.665 16.5,17.75 15.797,17.974 15,18 13.5,18 11.733,18 10.535,16.641 10.214,15.571 10,14.857 10,14.063 10,13 V 12 H 8.5 C 7,12 6,10.5 6,9 V 7 C 6,6.5 6.5,6 7,6 Z"/>
  <ellipse style="opacity:0.1" cx="-2.338" cy="17.074" rx="1.113" ry=".873" transform="matrix(0.55937,-0.82892,0.89658,0.44287,0,0)"/>
  <ellipse style="fill:#e4e4e4" cx="-1.886" cy="16.792" rx="1.113" ry=".873" transform="matrix(0.55937,-0.82892,0.89658,0.44287,0,0)"/>
  <ellipse style="opacity:0.1" cx="-13.065" cy="-3.002" rx="1.113" ry=".873" transform="matrix(-0.55937,-0.82892,-0.89658,0.44287,0,0)"/>
  <ellipse style="fill:#e4e4e4" cx="-12.612" cy="-3.285" rx="1.113" ry=".873" transform="matrix(-0.55937,-0.82892,-0.89658,0.44287,0,0)"/>
  <path style="opacity:0.2;fill:#ffffff" d="M 12,2 C 6.46,2 2,6.46 2,12 2,12.041 2.004,12.08 2.0063,12.12 2.1318,6.6908 6.5395,2.5 12,2.5 17.46,2.5 21.868,6.6908 21.994,12.12 21.996,12.08 22,12.041 22,12 22,6.46 17.54,2 12,2 Z"/>
  <path style="opacity:0.1;fill:#ffffff" d="M 7,6 C 6.5,6 6,6.5 6,7 V 7.5 C 6,7 6.5,6.5 7,6.5 H 15.5 C 17,6.5 18,7.5 18,9 V 8.5 C 18,7 17,6 15.5,6 Z M 14,14.5 V 15 C 14,15.449 14.199,16 14.199,16 14.432,16.518 14.883,17.353 15.586,17.43 15.94,17.468 16.252,17.387 16.35,17.281 16.406,17.221 16.5,17.099 16.5,17 16.5,16.822 16.643,16.5 17,16.5 17.171,16.498 17.302,16.537 17.387,16.604 17.451,16.517 17.5,16.425 17.5,16.33 17.5,16.13 17.318,15.996 17,16 16.643,16 16.5,16.322 16.5,16.5 16.5,16.599 16.406,16.721 16.35,16.781 16.252,16.887 15.94,16.968 15.586,16.93 14.883,16.853 14.432,16.018 14.199,15.5 14.199,15.5 14,14.949 14,14.5 Z M 17.367,17.133 C 17.236,17.296 17.047,17.431 17,17.5 17,17.5 17.395,17.641 17.5,17.682 17.549,17.7 17.593,17.736 17.633,17.777 17.704,17.687 17.75,17.586 17.75,17.5 17.75,17.393 17.631,17.232 17.5,17.182 17.472,17.171 17.423,17.153 17.367,17.133 Z"/>
 </g>
</svg>
